X:115
T:Cheshire Quick Step. JJo.115
S:J.Jones MS,1801,N.Shrops.
N:cf Cheshire Quick March JJ060
A:N Shropshire
Z:Neil Brookes 2006
M:2/4
L:1/8
Q:1/4=110
K:F
c’|aaaa|c’2ba|gfga|f/e/f/g/ fc’|aaaa|c’2 ba|gfga|f3:|!
|:a”_cr in MS & no barline”|agab|b2 ac’|bagf|g/f/g/a/ ga|gfga|b2gc’|bagf|c’3:|

